src/assets/images/referall.svg

<svg width="19" height="18" viewBox="0 0 19 18" fill="none" xmlns="http://www.w3.org/2000/svg">
<path d="M3.58268 3.83333C3.58268 2.68274 4.51542 1.75 5.66602 1.75C6.81661 1.75 7.74935 2.68274 7.74935 3.83333C7.74935 4.98392 6.81661 5.91667 5.66602 5.91667C4.51542 5.91667 3.58268 4.98392 3.58268 3.83333ZM5.66602 0.5C3.82507 0.5 2.33268 1.99238 2.33268 3.83333C2.33268 5.67428 3.82507 7.16667 5.66602 7.16667C7.50693 7.16667 8.99935 5.67428 8.99935 3.83333C8.99935 1.99238 7.50693 0.5 5.66602 0.5ZM11.916 4.66667C11.916 3.97631 12.4757 3.41667 13.166 3.41667C13.8563 3.41667 14.416 3.97631 14.416 4.66667C14.416 5.35702 13.8563 5.91667 13.166 5.91667C12.4757 5.91667 11.916 5.35702 11.916 4.66667ZM13.166 2.16667C11.7853 2.16667 10.666 3.28596 10.666 4.66667C10.666 6.04737 11.7853 7.16667 13.166 7.16667C14.5468 7.16667 15.666 6.04737 15.666 4.66667C15.666 3.28596 14.5468 2.16667 13.166 2.16667ZM2.54102 8.83333C1.50548 8.83333 0.666016 9.67283 0.666016 10.7083V10.9176V10.9185L0.666024 10.9207L0.666074 10.9259L0.666307 10.9398C0.666549 10.9505 0.666991 10.9642 0.667766 10.9809C0.669316 11.0141 0.672224 11.0587 0.677666 11.1132C0.688524 11.2217 0.709624 11.3708 0.750724 11.547C0.832641 11.898 0.996466 12.367 1.32587 12.8376C2.00823 13.8124 3.30917 14.6667 5.66602 14.6667C6.80682 14.6667 7.70027 14.4665 8.39585 14.1494C8.27168 13.7376 8.19518 13.305 8.17285 12.8583C7.63543 13.1757 6.84324 13.4167 5.66602 13.4167C3.64787 13.4167 2.7613 12.7084 2.34991 12.1207C2.13244 11.8101 2.02283 11.4978 1.96802 11.2629C1.94077 11.1461 1.92768 11.051 1.92146 10.9888C1.91836 10.9578 1.91699 10.9352 1.91641 10.9227L1.91602 10.9123V10.7083C1.91602 10.3632 2.19584 10.0833 2.54102 10.0833H8.77618C8.98327 9.68608 9.2381 9.31775 9.5331 8.98592C9.30552 8.88775 9.0546 8.83333 8.79102 8.83333H2.54102ZM18.166 12.5833C18.166 10.052 16.114 8 13.5827 8C11.0514 8 8.99935 10.052 8.99935 12.5833C8.99935 15.1147 11.0514 17.1667 13.5827 17.1667C16.114 17.1667 18.166 15.1147 18.166 12.5833ZM13.9999 13L14.0003 15.0862C14.0003 15.3164 13.8138 15.5029 13.5836 15.5029C13.3535 15.5029 13.1669 15.3164 13.1669 15.0862L13.1665 13H11.079C10.8491 13 10.6628 12.8135 10.6628 12.5833C10.6628 12.3532 10.8491 12.1667 11.079 12.1667H13.1664L13.166 10.0827C13.166 9.85258 13.3526 9.66608 13.5827 9.66608C13.8128 9.66608 13.9993 9.85258 13.9993 10.0827L13.9998 12.1667H16.0798C16.3098 12.1667 16.4961 12.3532 16.4961 12.5833C16.4961 12.8135 16.3098 13 16.0798 13H13.9999Z" fill="white"/>
</svg>

<svg width="19" height="18" fill="none" xmlns="http://www.w3.org/2000/svg"><path d="M3.583 3.833a2.083 2.083 0 1 1 4.166 0 2.083 2.083 0 0 1-4.166 0ZM5.666.5a3.333 3.333 0 1 0 0 6.667 3.333 3.333 0 0 0 0-6.667Zm6.25 4.167a1.25 1.25 0 1 1 2.5 0 1.25 1.25 0 0 1-2.5 0Zm1.25-2.5a2.5 2.5 0 1 0 0 5 2.5 2.5 0 0 0 0-5ZM2.541 8.833c-1.036 0-1.875.84-1.875 1.875v.232a1.742 1.742 0 0 0 .012.173 3.74 3.74 0 0 0 .648 1.724c.682.975 1.983 1.83 4.34 1.83 1.14 0 2.034-.2 2.73-.518a5.403 5.403 0 0 1-.223-1.29c-.538.317-1.33.558-2.507.558-2.018 0-2.905-.709-3.316-1.296a2.488 2.488 0 0 1-.429-1.132 1.269 1.269 0 0 1-.005-.066v-.215c0-.345.28-.625.625-.625h6.235a5.43 5.43 0 0 1 .757-1.097 1.87 1.87 0 0 0-.742-.153h-6.25Zm15.625 3.75a4.583 4.583 0 1 0-9.167 0 4.583 4.583 0 0 0 9.167 0ZM14 13v2.086a.417.417 0 1 1-.833 0V13h-2.088a.416.416 0 0 1 0-.833h2.087v-2.084a.417.417 0 0 1 .833 0v2.084h2.08a.416.416 0 0 1 0 .833H14Z" fill="#fff"/></svg>
